assets/gcpcloudnaturallanguageapi/original.svg

<svg height="24" width="24" xmlns="http://www.w3.org/2000/svg"><path d="m20 5h-3v2h3v12h-3v2h5v-16z" fill="#669df6"/><path d="m20 8 2-1h-2zm2 10-2 1h2z" fill="#4285f4"/><path d="m4 21h3v-2h-3v-12h3v-2h-5v16z" fill="#669df6"/><path d="m2 18 2 1h-2zm2-10-2-1h2z" fill="#4285f4"/><g fill="#aecbfa"><path d="m7 12h10v2h-10z"/><path d="m7 15h10v2h-10z"/><path d="m7 9h10v2h-10z"/></g></svg>

<svg xmlns="http://www.w3.org/2000/svg" width="24" height="24"><path fill="#669df6" d="M20 5h-3v2h3v12h-3v2h5V5z"/><path fill="#4285f4" d="m20 8 2-1h-2zm2 10-2 1h2z"/><path fill="#669df6" d="M4 21h3v-2H4V7h3V5H2v16z"/><path fill="#4285f4" d="m2 18 2 1H2zM4 8 2 7h2z"/><path fill="#aecbfa" d="M7 12h10v2H7zm0 3h10v2H7zm0-6h10v2H7z"/></svg>
